X:102
T:Herrings head (Olver)
%%VWML:SBG-1-2-339-0
F:http://www.vwml.org/record/SBG/1/2/339
Z:Original Sibelius transcriptions by M. & S. Graebe
M:3/8
I:linebreak $
K:G
V:1 treble nm="P1"
V:1
 D | G/D/4D/4 G/D/D | GFG | ABA | G2 (3B/B/B/ | c2 A | B2 G | AGF | G2 A/B/ | ccA | BBG | AGF |$ %12
 G2 G/G/ | GGG | eec | BBA | G2 | G2 | GGGF | G3 G | GG/G/GF/F/ |[M:3/8] G2 G |$ GAG | FED | GAG | %25
 FED | B3 G G | d2 B E | GGG | eec | BBA | G2 x | %32
T:Herrings head (Masters)
F:http://www.vwml.org/record/SBG/1/2/339
Z:Original Sibelius transcriptions by M. & S. Graebe
M:3/8
I:linebreak $
K:D
V:1 treble nm="P1"
V:1
 D | DDD | AAA | GFG | A2 A | DDD | ABA | GFG | A3 |"^chorus" FFF |$ A3 | FFF | A2 G | FED | DGB | %15
 A/A/FD | D2 | D | D/D/DD |$ AA/G/F | GAD | D2 D | AAB/B/ | AGF | GFG | A3 | %26
"^chorus as before" FFF |"_&c." A3 | %28


T:High Germany - Aggett
F:http://www.vwml.org/record/SBG/1/2/138
Z:Original Sibelius transcriptions by M. & S. Graebe
M:3/4
I:linebreak $
K:Bb
V:1 treble nm="P1"
V:1
 G2 | G2 d2 cB | AG =F3 G/A/ | d3 c B2 | A4 d2 | f2 d2 d=e | f2 d2 de | =d3 d cB | (AG A2) x2 | %9








